X: 74
T: Farewell Reel
C: R-33
C: Dudley Laufman
M: C|
Z: Transcribed to abc by Mary Lou Knack
R: reel
K: G
D2| "G"GABc d2B2| "C"g3e "G"d2B2|    GABc "Em"d2B2| "C"cBAG "D"A4|
    "G"GABc d2B2| "C"g3e "G"d2B2| "C"cBcd     efg2| "D"cBA2 "G"G2D2|
    "G"GABc d2B2| "C"g3e "G"d2B2|    GABc "Em"d2B2| "C"cBAG "D"A4|
    "G"GABc d2B2| "C"c3A "D"G2D2| "G"GABc "Em"d3G | "D"cBA2 "G"G4 |]
|:\
"G"gfed BDGB| "C"cEGc "G"BDGB|    gfed BDGB| "Am"cBAG "D"A4|
"G"gfed BDGB| "C"cEGc "G"BDGB| "C"cBcd efg2|1 "D"cBA2 "G"G4 :|2 "D"cBA2 "G"G2 |]
%%text 9/1/98
